X: 1309
T: Küçüksu`da Gördüm Seni
C: Tanburî Mustafa Çavuş
O: Turkey
F: http://compmusic.upf.edu/node/140
N: sehnazbuselik--sarki--aksak--kucuksuda_gordum--tanburi_mustafa_cavus
N: makam= sehnazbuselik
N: form= sarki
N: usul= aksak = 9/8
M: 9/8
L: 1/16
K: C    
Q: 1/4=138
%%MIDI tuningsystem comma53
^gabc' d'c'ba gabc' bagf ed | ef ^gaba gfef gagf ed^cd  | 
w:  ARANAĞME  |   | 
e2{^g}fe b2ag gffe e6 | .d4.a4.c4g4a2  | \
w:   |   | 
g2f2 e2d2 c2B2 A2G2 c2 | 
w:   | 
B4c3BBA A^GA4z2  | ^gabc' d'c'ba gabc' bagf ed | 
w:   |  ARANAĞME  | 
ef ^gaba gfef gagf ed^cd  | e2{^g}fe b2ag gffe e6 | 
w:   |   | 
.d4.a4.c4g4a2  | g2f2 e2d2 c2B2 A2G2 c2 | \
w:   |   | 
B4c3BBA A^GA4z2  | 
w:   | 
a4 e4 c'3/2b/ab ^g2a2 ag | a4a2 {b}ag^f3/2e/ d2ef g2fe  | 
w:  Kü çük su *  *  *  da   |  *  gör *  düm  *  se *  *  ni    | 
e4 zd2a a4 g2^f2 e2 | ^f2 efg2 ag=f3/2e/ d2c2 d2c_1/4B  | 
w:  *  Göz le rin den   |  bil *  *  dim  *  *  se *  *  ni    | 
A3G zA2B c2d2 e2f2 ed | c2 BAB2 {d}cBBA A^GA6  | 
w:  *  *  Göz le rin *  den   |  bil *  *  dim  *  *  *  se *  *  *  ni    | 
a4 e4 c'3/2b/ab ^g2a2 ag | a4a2 {b}ag^f3/2e/ d2ef g2fe  | 
w:  İn kâr  et *  *  *  mem   |  *  sev *  dim  *  se *  *  ni    | 
e4 z2da a4 g2^f2 e2 | ^f2 efg2 ag=f3/2e/ d2c2 d2c_1/4B  | 
w:  *  Ne  ka dar  ce  |  fâ  *  *  e *  *  der *  *  sen    | 
A3G z2AB c2d2 e2f2 ed | c2 BAB2 {d}cBBA A^GA3dcd  | 
w:  *  *  Gö nül_ ay *  rıl  |  mı *  *  yor  *  *  *  sen *  *  *  den   SAZ  | 
e4 z2da a4 g2^f2 e2 | ^f2 efg2 ag=f3/2e/ d2c2 d2c_1/4B  | 
w:  *  Ne  ka dar  ce  |  fâ  *  *  e *  *  der *  *  sen    | 
A3G z2AB c2d2 e2f2 ed | c2 BAB2 {d}cBBA A^GA4z2  | 
w:  *  *  Gö nül_ ay *  rıl  |  mı *  *  yor  *  *  *  sen *  *  *  den    | 
^gabc' d'c'ba gabc' bagf ed | ef ^gaba gfef gagf ed^cd  | 
w:  ARANAĞME  |   | 
e2{^g}fe b2ag gffe e6 | .d4.a4.c4g4a2  | \
w:   |   | 
g2f2 e2d2 c2B2 A2G2 c2 | 
w:   | 
B4c3BBA A^GA4z2  | ^gabc' d'c'ba gabc' bagf ed | 
w:   |  ARANAĞME  | 
ef ^gaba gfef gagf ed^cd  | e2{^g}fe b2ag gffe e6 | 
w:   |   | 
.d4.a4.c4g4a2  | g2f2 e2d2 c2B2 A2G2 c2 | \
w:   |   | 
B4c3BBA A^GA4z2  | 
w:   | 
a4 e4 c'3/2b/ab ^g2a2 ag | a4a2 {b}ag^f3/2e/ d2ef g2fe  | 
w:  Kü çük su *  *  *  da   |  *  gör *  düm  *  se *  *  ni    | 
e4 zd2a a4 g2^f2 e2 | ^f2 efg2 ag=f3/2e/ d2c2 d2c_1/4B  | 
w:  *  Göz le rin den   |  bil *  *  dim  *  *  se *  *  ni    | 
A3G zA2B c2d2 e2f2 ed | c2 BAB2 {d}cBBA A^GA6  | 
w:  *  *  Göz le rin *  den   |  bil *  *  dim  *  *  *  se *  *  *  ni    | 
a4 e4 c'3/2b/ab ^g2a2 ag | a4a2 {b}ag^f3/2e/ d2ef g2fe  | 
w:  İn kâr  et *  *  *  mem   |  *  sev *  dim  *  se *  *  ni    | 
e4 z2da a4 g2^f2 e2 | ^f2 efg2 ag=f3/2e/ d2c2 d2c_1/4B  | 
w:  *  Ne  ka dar  ce  |  fâ  *  *  e *  *  der *  *  sen    | 
A3G z2AB c2d2 e2f2 ed | c2 BAB2 {d}cBBA A^GA3dcd  | 
w:  *  *  Gö nül_ ay *  rıl  |  mı *  *  yor  *  *  *  sen *  *  *  den   SAZ  | 
e4 z2da a4 g2^f2 e2 | ^f2 efg2 ag=f3/2e/ d2c2 d2c_1/4B  | 
w:  *  Ne  ka dar  ce  |  fâ  *  *  e *  *  der *  *  sen    | 
A3G z2AB c2d2 e2f2 ed | c2 BAB2 {d}cBBA A^GA4z2  | 
w:  *  *  Gö nül_ ay *  rıl  |  mı *  *  yor  *  *  *  sen *  *  *  den    | 
|


